core/img/actions/close.svg

<?xml version="1.0" encoding="UTF-8" standalone="no"?>
<svg xmlns="http://www.w3.org/2000/svg" height="16" width="16" version="1.1">
 <path d="m12.95 11.536l-1.414 1.414-3.536-3.536-3.535 3.536-1.415-1.414 3.536-3.536-3.536-3.536 1.415-1.414 3.535 3.536 3.516-3.555 1.434 1.434-3.536 3.535z"/>
</svg>

<svg xmlns="http://www.w3.org/2000/svg" height="16" width="16"><defs><filter id="a" height="1.599" width="1.601" y="-.3" x="-.3" color-interpolation-filters="sRGB"><feGaussianBlur stdDeviation="1.239"/></filter></defs><path filter="url(#a)" stroke="#fff" stroke-width="2" d="M12.95 11.536l-1.414 1.414L8 9.414 4.465 12.95 3.05 11.536 6.586 8 3.05 4.464 4.465 3.05 8 6.586l3.516-3.555 1.434 1.434L9.414 8z" fill="#fff"/><path d="M12.95 11.536l-1.414 1.414L8 9.414 4.465 12.95 3.05 11.536 6.586 8 3.05 4.464 4.465 3.05 8 6.586l3.516-3.555 1.434 1.434L9.414 8z"/></svg>
